src/svg/flag-outline.svg

<svg version="1.2" baseProfile="tiny" xmlns="http://www.w3.org/2000/svg" width="24" height="24" viewBox="0 0 24 24"><path d="M18.383 4.318c-.374-.155-.804-.069-1.09.217-1.264 1.263-3.321 1.264-4.586 0-2.045-2.043-5.37-2.043-7.414 0-.188.187-.293.442-.293.707v13c0 .552.448 1 1 1s1-.448 1-1v-4.553c1.271-.997 3.121-.911 4.293.26 2.045 2.043 5.371 2.043 7.414 0 .188-.188.293-.442.293-.707v-8c0-.405-.244-.769-.617-.924zm-7.09 1.631c1.54 1.539 3.808 1.918 5.707 1.138v2.311c-1.446.916-3.387.749-4.646-.51-1.448-1.447-3.598-1.743-5.354-.927v-2.272c1.271-.997 3.121-.912 4.293.26zm1.414 6.585c-1.022-1.021-2.365-1.532-3.707-1.532-.681 0-1.361.131-2 .394v-2.311c1.446-.916 3.387-.749 4.646.51.925.924 2.139 1.386 3.354 1.386.687 0 1.366-.164 2-.459v2.272c-1.272.997-3.122.911-4.293-.26z"/></svg>

<?xml version="1.0" encoding="iso-8859-1"?>
<!-- Generator: Adobe Illustrator 16.2.1, SVG Export Plug-In . SVG Version: 6.00 Build 0)  -->
<svg version="1.2" baseProfile="tiny" xmlns="http://www.w3.org/2000/svg" xmlns:xlink="http://www.w3.org/1999/xlink" x="0px"
	 y="0px" width="24px" height="24px" viewBox="0 0 24 24" xml:space="preserve">
<g id="Layer_1">
	<path d="M18.383,4.318c-0.374-0.155-0.804-0.069-1.09,0.217c-1.264,1.263-3.321,1.264-4.586,0c-2.045-2.043-5.37-2.043-7.414,0
		C5.105,4.722,5,4.977,5,5.242v13c0,0.552,0.448,1,1,1s1-0.448,1-1v-4.553c1.271-0.997,3.121-0.911,4.293,0.26
		c2.045,2.043,5.371,2.043,7.414,0C18.895,13.761,19,13.507,19,13.242v-8C19,4.837,18.756,4.473,18.383,4.318z M11.293,5.949
		C12.833,7.488,15.101,7.867,17,7.087v2.311c-1.446,0.916-3.387,0.749-4.646-0.51C10.906,7.441,8.756,7.145,7,7.961V5.689
		C8.271,4.692,10.121,4.777,11.293,5.949z M12.707,12.534c-1.022-1.021-2.365-1.532-3.707-1.532c-0.681,0-1.361,0.131-2,0.394V9.085
		c1.446-0.916,3.387-0.749,4.646,0.51c0.925,0.924,2.139,1.386,3.354,1.386c0.687,0,1.366-0.164,2-0.459v2.272
		C15.728,13.791,13.878,13.705,12.707,12.534z"/>
</g>
<g id="nyt_x5F_exporter_x5F_info" display="none">
</g>
</svg>
